actions/24/mail-signed-verified.svg

<?xml version="1.0" encoding="UTF-8" standalone="no"?>
<svg
   width="24"
   height="24"
   version="1.1"
   id="svg9"
   sodipodi:docname="mail-signed-verified.svg"
   inkscape:version="1.1.2 (0a00cf5339, 2022-02-04)"
   xmlns:inkscape="http://www.inkscape.org/namespaces/inkscape"
   xmlns:sodipodi="http://sodipodi.sourceforge.net/DTD/sodipodi-0.dtd"
   xmlns="http://www.w3.org/2000/svg"
   xmlns:svg="http://www.w3.org/2000/svg">
  <sodipodi:namedview
     id="namedview11"
     pagecolor="#000000"
     bordercolor="#666666"
     borderopacity="1.0"
     inkscape:pageshadow="2"
     inkscape:pageopacity="0"
     inkscape:pagecheckerboard="0"
     showgrid="false"
     inkscape:zoom="28.416667"
     inkscape:cx="11.982405"
     inkscape:cy="11.964809"
     inkscape:window-width="1482"
     inkscape:window-height="967"
     inkscape:window-x="0"
     inkscape:window-y="29"
     inkscape:window-maximized="1"
     inkscape:current-layer="g7" />
  <defs
     id="defs3">
    <style
       id="current-color-scheme"
       type="text/css">
   .ColorScheme-Text { color:#eeeeec; } .ColorScheme-Highlight { color:#367bf0; } .ColorScheme-NeutralText { color:#ffcc44; } .ColorScheme-PositiveText { color:#3db47e; } .ColorScheme-NegativeText { color:#dd4747; }
  </style>
  </defs>
  <g
     transform="translate(4,4)"
     id="g7">
    <path
       style="fill:currentColor"
       class="ColorScheme-Text"
       d="M 2,2 C 0,2 0,4 0,4 v 8 c 0,0 0,2 2,2 h 12 c 2,0 2,-2 2,-2 V 4 c 0,0 0,-2 -2,-2 z m 11.131,2 c 0.196,0.0171 0.396,0.0975 0.584,0.2852 C 14.465,5 13.5,6 13.5,6 l -5.8787359,5.878736 v 0 L 6.3484277,11.848428 3.5,9 C 3.5,9 2.5352,8 3.2852,7.2852 4.0354,6.5349 5,7.5 5,7.5 l 1.5458487,1.5458487 0.8945631,0.013739 v 0 L 12,4.5 c 0,0 0.543,-0.5433 1.131,-0.5 z"
       id="path5"
       sodipodi:nodetypes="sccssccsscccccccccccccc" />
  </g>
</svg>

<svg xmlns="http://www.w3.org/2000/svg" width="24" height="24" version="1.1">
 <defs>
  <style id="current-color-scheme" type="text/css">
   .ColorScheme-Text { color:#eeeeec; } .ColorScheme-Highlight { color:#367bf0; } .ColorScheme-NeutralText { color:#ffcc44; } .ColorScheme-PositiveText { color:#3db47e; } .ColorScheme-NegativeText { color:#dd4747; }
  </style>
 </defs>
 <g transform="translate(4,4)">
  <path style="fill:currentColor" class="ColorScheme-Text" d="M 2,2 C 0,2 0,4 0,4 V 12 C 0,12 0,14 2,14 H 14 C 16,14 16,12 16,12 V 4 C 16,4 16,2 14,2 Z M 13.131,4 C 13.327,4.0171 13.527,4.0975 13.715,4.2852 14.465,5 13.5,6 13.5,6 L 7,12.5 3.5,9 C 3.5,9 2.5352,8 3.2852,7.2852 4.0354,6.5349 5,7.5 5,7.5 L 7,9.5 12,4.5 C 12,4.5 12.543,3.9567 13.131,4 Z"/>
 </g>
</svg>
